!!!COM: Corelli, Arcangelo
!!!OTL: 
!!!ONM: Opus 6, No. 5
!!!OMV: 2
!!!CDT: 1653/2/17/-1713/1/8/
!!!OCY: Italia
**kern	**kern	**kern	**kern	**kern	**kern	**kern
*clefC	*clefG	*clefG	*clefG	*clefC	*clefG	*clefG
*k[b-]	*k[b-]	*k[b-]	*k[b-]	*k[b-e-]	*k[b-]	*k[b-]
*F:	*F:	*F:	*F:	*F:	*F:	*F:
*M3/8	*M3/8	*M3/8	*M3/8	*M3/8	*M3/8	*M3/8
=1	=1	=1	=1	=1	=1	=1
4.r	4.r	4.r	4.r	4.r	4.r	16r
.	.	.	.	.	.	16ff
.	.	.	.	.	.	16ee-
.	.	.	.	.	.	16dd
.	.	.	.	.	.	16cc
.	.	.	.	.	.	16ee-
=2	=2	=2	=2	=2	=2	=2
4r	4r	4r	4r	8B-	16r	8dd
.	.	.	.	.	16ff	.
.	.	.	.	8D	16bb-	8ff
.	.	.	.	.	16dd	.
8F	8f	8a	8cc	8F	16cc	8f
.	.	.	.	.	16aa	.
=3	=3	=3	=3	=3	=3	=3
4BB-	4f	4b-	4dd	4BB-	16b-	16r
.	.	.	.	.	16bb-	16dd
.	.	.	.	.	16aa	16cc
.	.	.	.	.	16gg	16b-
8r	8r	8r	8r	8r	16ff#	16a
.	.	.	.	.	16aa	16cc
=4	=4	=4	=4	=4	=4	=4
4r	4r	4r	4r	8G	16r	8b-
.	.	.	.	.	16dd	.
.	.	.	.	8BB-	16gg	8dd
.	.	.	.	.	16b-	.
8D	8d	8f#	8a	8D	16a	8d
.	.	.	.	.	16ff#	.
=5	=5	=5	=5	=5	=5	=5
4GG	4d	4g	4b-	4GG	16g	16r
.	.	.	.	.	16ee-	16gg
.	.	.	.	.	16dd	16ff
.	.	.	.	.	16cc	16ee-
8r	8r	8r	8r	8r	16b	16dd
.	.	.	.	.	16dd	16ff
=6	=6	=6	=6	=6	=6	=6
4.r	4.r	4.r	4.r	8c	16r	16ee-
.	.	.	.	.	16gg	16g
.	.	.	.	8E-	16ee-	16cc
.	.	.	.	.	16gg	16ee-
.	.	.	.	8F	16ff	16dd
.	.	.	.	.	16ee-	16cc
=7	=7	=7	=7	=7	=7	=7
8.G	8.g	8.dd	8.b	8.G	8.dd	8.b
16E-	16g	16g	16gg	16E-	16g	16gg
8F	8f	8cc	16aa-	8F	8cc	16aa-
.	.	.	16gg	.	.	16gg
=8	=8	=8	=8	=8	=8	=8
8C	8g	8cc	16ff	8C	8cc	16ff
.	.	.	16ee-	.	.	16ee-
8G	8.g	8.cc	4dd	8G	8.cc	4dd
8GG	.	.	.	8GG	.	.
.	16g	16b	.	.	16b	.
=9	=9	=9	=9	=9	=9	=9
4C	4g	4cc	4cc	4C	16cc	16cc
.	.	.	.	.	16ee-	16gg
.	.	.	.	.	16dd	16ff
.	.	.	.	.	16cc	16ee-
8r	8r	8r	8r	8r	16b	16dd
.	.	.	.	.	16dd	16ff
=10	=10	=10	=10	=10	=10	=10
4r	4r	4r	4r	8c	16r	8ee-
.	.	.	.	.	16g	.
.	.	.	.	8E-	16cc	8gg
.	.	.	.	.	16e-	.
8G	8g	8b	8dd	8G	16d	8g
.	.	.	.	.	16b	.
=11	=11	=11	=11	=11	=11	=11
4C	4g	4cc	4ee-	4C	16c	16r
.	.	.	.	.	16cc	16ee-
.	.	.	.	.	16ee-	16cc
.	.	.	.	.	16cc	16ee-
8r	8r	8r	8r	8r	16b-	16dd
.	.	.	.	.	16a	16cc
=12	=12	=12	=12	=12	=12	=12
4r	4r	4r	4r	8B-	16r	8dd
.	.	.	.	.	16f	.
.	.	.	.	8D	16b-	8ff
.	.	.	.	.	16d	.
8F	8f	8a	8cc	8F	16c	8f
.	.	.	.	.	16a	.
=13	=13	=13	=13	=13	=13	=13
4BB-	4f	4b-	4dd	4BB-	16B-	16r
.	.	.	.	.	16b-	16dd
.	.	.	.	.	16a	16cc
.	.	.	.	.	16g	16b-
8r	8r	8r	8r	8r	16f#	16a
.	.	.	.	.	16a	16cc
=14	=14	=14	=14	=14	=14	=14
4r	4r	4r	4r	8G	16r	8b-
.	.	.	.	.	16d	.
.	.	.	.	8BB-	16g	8dd
.	.	.	.	.	16B-	.
8D	8d	8f#	8a	8D	16A	8d
.	.	.	.	.	16f#	.
=15	=15	=15	=15	=15	=15	=15
8GG	8d	16g	16b-	8GG	16G	16r
.	.	16dd	16bb-	.	16dd	16bb-
8BB-	8g	16b-	16gg	8BB-	16b-	16gg
.	.	16dd	16bb-	.	16dd	16bb-
8C	8e-	16cc	16aa	8C	16cc	16aa
.	.	16b-	16gg	.	16b-	16gg
=16	=16	=16	=16	=16	=16	=16
4D	4A	4a	4ff#	4D	8a	16ff#
.	.	.	.	.	.	16ddd
.	.	.	.	.	16r	16aa
.	.	.	.	.	16ddd	16bb-
8r	8r	8r	8r	8r	16aa	16ff#
.	.	.	.	.	16bb-	16gg
=17	=17	=17	=17	=17	=17	=17
4D	4d	4f#	4a	4D	8ff#	16dd
.	.	.	.	.	.	16ddd
.	.	.	.	.	16r	16aa
.	.	.	.	.	16ddd	16bb-
8r	8r	8r	8r	8r	16aa	16ff#
.	.	.	.	.	16bb-	16gg
=18	=18	=18	=18	=18	=18	=18
4D	4d	4f#	4a	4D	16ff#	16b-
.	.	.	.	.	16bb-	16ddd
.	.	.	.	.	16aa	16ccc
.	.	.	.	.	16gg	16bb-
8r	8r	8r	8r	8d	16ff#	16aa
.	.	.	.	.	16gg	16bb-
=19	=19	=19	=19	=19	=19	=19
4r	4r	8.r	8.r	8c	8.aa	8.ccc
.	.	.	.	8F#	.	.
.	.	16dd	16ddd	.	16bb-	16ddd
8G	8g	16gg	16bb-	8G	16gg	16bb-
.	.	16ff#	16aa	.	16ff#	16aa
=20	=20	=20	=20	=20	=20	=20
8C	8e-	8gg	16bb-	8C	8gg	16bb-
.	.	.	16ccc	.	.	16ccc
8D	8.A	8.gg	4aa	8D	8.gg	4aa
8DD	.	.	.	8DD	.	.
.	16d	16ff#	.	.	16ff#	.
=21	=21	=21	=21	=21	=21	=21
8.G	4d	4gg	16gg	8.G	4gg	16gg
.	.	.	16aa	.	.	16aa
.	.	.	[4bb-	.	.	[4bb-
16F	.	.	.	16F	.	.
16E	8r	8gg	.	16E	8gg	.
16C	.	.	.	16C	.	.
=22	=22	=22	=22	=22	=22	=22
16F	8f	4cc	8bb-]	16F	4cc	8bb-]
16E	.	.	.	16E	.	.
16F	8a	.	[4aa	16F	.	[4aa
16G	.	.	.	16G	.	.
16A	8f	8ccc	.	16A	8ccc	.
16F	.	.	.	16F	.	.
=23	=23	=23	=23	=23	=23	=23
16G	4d	4.bb-	8aa]	16G	4.bb-	8aa]
16F#	.	.	.	16F#	.	.
16G	.	.	8dd	16G	.	8dd
16A	.	.	.	16A	.	.
16B-	8r	.	[8gg	16B-	.	[8gg
16c	.	.	.	16c	.	.
=24	=24	=24	=24	=24	=24	=24
16d	8d	4.aa	8gg]	16d	4.aa	8gg]
16c	.	.	.	16c	.	.
16d	8f	.	[4ff	16d	.	[4ff
16D	.	.	.	16D	.	.
16F	8d	.	.	16F	.	.
16D	.	.	.	16D	.	.
=25	=25	=25	=25	=25	=25	=25
16E-	4B-	4.gg	8ff]	16E-	4.gg	8ff]
16D	.	.	.	16D	.	.
16E-	.	.	8b-	16E-	.	8b-
16F	.	.	.	16F	.	.
16G	8r	.	[8ee-	16G	.	[8ee-
16A	.	.	.	16A	.	.
=26	=26	=26	=26	=26	=26	=26
16B-	8b-	4.ff	8ee-]	16B-	4.ff	8ee-]
16A	.	.	.	16A	.	.
16B-	8dd	.	[4dd	16B-	.	[4dd
16c	.	.	.	16c	.	.
16d	8b-	.	.	16d	.	.
16B-	.	.	.	16B-	.	.
=27	=27	=27	=27	=27	=27	=27
16c	4g	4.ee-	8dd]	16c	4.ee-	8dd]
16d	.	.	.	16d	.	.
16c	.	.	8g	16c	.	8g
16B-	.	.	.	16B-	.	.
16A	8f	.	[8cc	16A	.	[8cc
16F	.	.	.	16F	.	.
=28	=28	=28	=28	=28	=28	=28
16B-	4f	4dd	8cc]	16B-	4dd	8cc]
16A	.	.	.	16A	.	.
16B-	.	.	8f	16B-	.	8f
16c	.	.	.	16c	.	.
16d	8d	8ff	[8b-	16d	8ff	[8b-
16D	.	.	.	16D	.	.
=29	=29	=29	=29	=29	=29	=29
16E-	4c	8gg	8b-]	16E-	8gg	8b-]
16C	.	.	.	16C	.	.
16F	.	4cc	8.b-	16F	4cc	8.b-
16E-	.	.	.	16E-	.	.
16F	8f	.	.	16F	.	.
16FF	.	.	16a	16FF	.	16a
=30	=30	=30	=30	=30	=30	=30
16BB-	4d	8b-	4b-	16BB-	8b-	4b-
16AA	.	.	.	16AA	.	.
16BB-	.	[4ff	.	16BB-	[4ff	.
16C	.	.	.	16C	.	.
16D	8b-	.	8ff	16D	.	8ff
16BB-	.	.	.	16BB-	.	.
=31	=31	=31	=31	=31	=31	=31
16E-	4b-	8ff]	4gg	16E-	8ff]	4gg
16D	.	.	.	16D	.	.
16E-	.	8b-	.	16E-	8b-	.
16F	.	.	.	16F	.	.
16G	8g	8ee-	8gg	16G	8ee-	8gg
16E-	.	.	.	16E-	.	.
=32	=32	=32	=32	=32	=32	=32
4F	4c	4ee-	4aa	4F	4ee-	4aa
8G	8B-	[8dd	8bb-	8G	[8dd	8bb-
=33	=33	=33	=33	=33	=33	=33
8E-	8g	8dd]	8b-	8E-	8dd]	8b-
8F	8.c	4cc	8.b-	8F	4cc	8.b-
8FF	.	.	.	8FF	.	.
.	16f	.	16a	.	.	16a
=34	=34	=34	=34	=34	=34	=34
4BB-	4d	4b-	4b-	4BB-	4b-	4b-
8E-	8e-	8B-	8g	8E-	8B-	8g
=35	=35	=35	=35	=35	=35	=35
4E-	4c	4f	4A	4E-	4f	4A
8D	8d	[8B-	8f	8D	[8B-	8f
=36	=36	=36	=36	=36	=36	=36
8E-	8c	8B-]	8g	8E-	8B-]	8g
8F	8.f	8.B-	8.c	8F	8.B-	8.c
8FF	.	.	.	8FF	.	.
.	16f	16A	16f	.	16A	16f
=37	=37	=37	=37	=37	=37	=37
4.BB-	4.f	4.B-	4.d	4.BB-	4.B-	4.d
==	==	==	==	==	==	==
*-	*-	*-	*-	*-	*-	*-
!!!RWG: This file only contains pitch and duration data.
!!!RWG: Transposing instruments are not transposed.
!!!RWG: Durations of rests and tied notes may be interpreted.
!!!RWG: Key is interpreted using the Humdrum key tool.
!!!SCA: 
!!!YOR: Chrysander Edition
!!!AGN: concerto grosso
!!!AFT: stage1
!!!ENC: F. Bennion
!!!END: 1997/04/15
!!!AST: baroque
!!!YEC: Copyright 1994, Center for Computer Assisted Research in the Humanities
!!!YEM: Rights to all derivative electronic formats reserved.
!!!YEM: Refer to licensing agreement for further details.
!!!YEN: United States of America
!!!EED: W.B. Hewlett
!!!KEY: 3589863974
!!!EMD: Converted from MuseData to Humdrum Aug 9, 1999, by Bret Aarden using muse2kern.
!!!VTS: 1442345715
